X:1
T:James Gibb editions
T:Psalm 65 (Becker) - Schütz
%%score [ ( 1 2 ) ( 3 4 ) ]
L:1/8
Q:1/4=100
M:3/4
K:C
V:1 treble nm="Soprano Alto"
V:2 treble 
V:3 bass nm="Tenor Bass"
V:4 bass 
V:1
"^Cornelius Becker\n(1561-1604)""^Psalm 65, SWV 162""^Heinrich Schütz\n(1585-1672)" E4 E2 | D4 C2 | %2
w: ~Wohl dem,|den Gott|
 F4 E2 | E4 z2 | G4 A2 | B4 c2 | B4 A2 | ^G4 z2 | B4 c2 | A4 G2 | A4 B2 | c4 z2 | B4 c2 | d4 A2 | %14
w: hat er-|wählt,|daß er|wohn in|sei- nem|Zelt,|in den|Hö- fen|sei- nes|Haus|stets zu|ge- hen|
 c2 B4 | A4 z2 | c4 B2 | A4 G2 | (F2 G2) A2 | ^G4 z2 | c4 B2 | A4 G2 | (F2 G2) A2 | ^G4 z2 | %24
w: ein und|aus,|hoch ist|sol- cher|Mensch * ge-|ehrt,|dem die|Gna- de|wi- * der-|fährt,|
 G4 A2 | (B2 d2) c2 | (B2 A2) ^G2 | A12 |] %28
w: daß man|ihn * Gotts|Wil\- * len|lehrt.|
V:2
 C4 C2 | B,4 A,2 | A,4 C2 | B,4 z2 | E4 E2 | G4 G2 | G4 E2 | E4 z2 | E4 E2 | F4 E2 | (F2 E2) G2 | %11
 G4 z2 | G4 G2 | F4 D2 | E2 E4 | E4 z2 | E4 G2 | C4 E2 | D4 D2 | E4 z2 | E4 G2 | C4 E2 | D4 D2 | %23
 E4 z2 | E4 E2 | G4 G2 | F4 E2 | E12 |] %28
V:3
 A,4 G,2 | G,4 E,2 | D,2 F,2 A,2 | ^G,4 z2 | B,4 C2 | D4 E2 | D4 C2 | B,4 z2 | G,4 A,2 | C4 C2 | %10
 C4 D2 | E4 z2 | D4 E2 | A,4 F,2 | A,2 ^G,4 | A,4 z2 | A,2 C2 E2 | A,4 C2 | A,4 A,2 | B,4 z2 | %20
 (A,2 C2) E2 | %21
"^3. Gott erhör uns alle Zeit\nnach deiner Gerechtigkeit, \nunser Heil und Zuversicht \nsteht zu dir, verlaß uns nicht. \nAll'n zu Wasser und zu Land\ndeine Rüstung ist bekannt, \nBerg stehn fest durch deine Hand.\n\n4. Obgleich brausen noch so sehr\ngroße Wellen auf dem Meer, \nauch die Völker insgemein, \ngar wütend und tobend sein, \nstillet sie doch deine Macht, \nwelchs den Völkern Schrecken bracht, \ndie auf dein Wort haben acht.\n\n5. All's was lebt und Odem hat, \nmachst du fröhlich früh uns spat, \nsuchst das Land mit Segen heim, \nGottes Brünnlein wässerns fein, \ndaß die lieben Früchte stehn, \nauf dem Felde reich und schön \nund wir unsre Lust dran sehn." A,4 C2 | %22
 A,4 A,2 | B,4 z2 | %24
"^6. Durch dein reiche milde Hand\nwird recht wohl gebaut das Land, \ndas Getreide wohl gerät, \nwenn dein Segen drüber geht, \ndas Gepflügte suchst du heim, \ngibst ihm Reg'n und Sonnenschein, \nläßt es fruchtbarlich gedeih'n.\n\n7. Mit dein'm Gut krönst du das Jahr,\ndein Fußstapfen triefen gar, \nBerg und Tal sind fett und reich, \ndurch dein Seg'n zu unserm Heil, \nschön geziert mit Laub und Gras, \ndein Segen füllt Scheun und Faß, \nund währt ohne Unterlaß.\n\n8. Auf den Angern Schafe gehen, \nviele tausend fett und schön, \ndick das Korn in Au en steht, \nnach Wunsch alles wohl gerät. \nOb solch großer Gütigkeit \njauchzt und singt man allezeit \ndir zu Lob in Ewigkeit." B,4 C2 | %25
 (D2 B,2) E2 | (D2 C2) B,2 | A,12 |] %28
V:4
 A,,4 C,2 | G,,4 A,,2 | D,2 z2 A,,2 | E,4 z2 | E,4 A,2 | G,4 C,2 | G,4 A,2 | E,4 z2 | E,4 A,2 | %9
 F,4 C,2 | (D,2 A,2) G,2 | C,4 z2 | G,4 E,2 | D,4 D,2 | A,,2 E,4 | A,,4 z2 | A,2 z2 E,2 | F,4 C,2 | %18
 (D,2 E,2) F,2 | E,4 z2 | A,4 E,2 | F,4 C,2 | (D,2 E,2) F,2 | E,4 z2 | E,4 A,2 | G,4 C,2 | %26
 D,4 E,2 | A,,12 |] %28

